; generated by Slic3r 1.3.0 on 2022-04-27 at 01:32:14

; external perimeters extrusion width = 0.44mm (6.37mm^3/s)
; perimeters extrusion width = 0.42mm (12.03mm^3/s)
; infill extrusion width = 0.40mm (10.05mm^3/s)
; solid infill extrusion width = 0.42mm (4.01mm^3/s)
; top infill extrusion width = 0.42mm (2.00mm^3/s)
; support material extrusion width = 0.44mm (4.25mm^3/s)

M190 S100 ; set bed temperature and wait for it to be reached
M104 S210 ; set temperature
G28

M109 S210 ; set temperature and wait for it to be reached
G21 ; set units to millimeters
G90 ; use absolute coordinates
M82 ; use absolute distances for extrusion
G92 E0
M106 S127.5
G1 E-6.00000 F3000.00000
G92 E0
G1 Z0.400 F9000.000
G1 X37.428 Y36.000 F9000.000
G1 E6.00000 F3000.00000
G1 F3000
G1 X37.409 Y36.660 E6.07845
G1 X37.369 Y37.157 E6.13765
G1 X37.225 Y38.144 E6.25610
G1 X36.995 Y39.114 E6.37449
G1 X36.682 Y40.060 E6.49286
G1 X36.288 Y40.976 E6.61124
G1 X35.815 Y41.854 E6.72970
G1 X35.453 Y42.421 E6.80962
G1 X35.164 Y42.827 E6.86883
G1 X34.534 Y43.600 E6.98724
G1 X33.839 Y44.315 E7.10563
G1 X33.085 Y44.967 E7.22403
G1 X32.276 Y45.550 E7.34242
G1 X31.853 Y45.815 E7.40169
G1 X31.133 Y46.210 E7.49931
G1 X30.223 Y46.619 E7.61773
G1 X29.756 Y46.793 E7.67700
G1 X29.114 Y46.995 E7.75683
G1 X28.144 Y47.225 E7.87529
G1 X27.157 Y47.369 E7.99369
G1 X26.660 Y47.409 E8.05290
G1 X26.000 Y47.428 E8.13137
G1 X-26.000 Y47.428 E14.30716
G1 X-26.660 Y47.409 E14.38563
G1 X-27.157 Y47.369 E14.44483
G1 X-27.824 Y47.281 E14.52474
G1 X-28.802 Y47.079 E14.64335
G1 X-29.590 Y46.849 E14.74081
G1 X-30.061 Y46.682 E14.80010
G1 X-30.976 Y46.287 E14.91849
G1 X-31.420 Y46.061 E14.97770
G1 X-32.003 Y45.724 E15.05759
G1 X-32.827 Y45.164 E15.17601
G1 X-33.221 Y44.857 E15.23526
G1 X-33.839 Y44.315 E15.33292
G1 X-34.534 Y43.600 E15.45132
G1 X-35.164 Y42.828 E15.56973
G1 X-35.724 Y42.003 E15.68814
G1 X-36.210 Y41.132 E15.80656
G1 X-36.619 Y40.223 E15.92493
G1 X-36.946 Y39.282 E16.04333
G1 X-37.191 Y38.315 E16.16173
G1 X-37.350 Y37.331 E16.28015
G1 X-37.423 Y36.337 E16.39854
G1 X-37.428 Y-36.000 E24.98961
G1 X-37.409 Y-36.660 E25.06806
G1 X-37.369 Y-37.157 E25.12728
G1 X-37.282 Y-37.822 E25.20690
G1 X-37.191 Y-38.316 E25.26651
G1 X-36.995 Y-39.114 E25.36411
G1 X-36.849 Y-39.591 E25.42333
G1 X-36.620 Y-40.221 E25.50296
G1 X-36.424 Y-40.684 E25.56275
G1 X-36.061 Y-41.420 E25.66018
G1 X-35.815 Y-41.854 E25.71939
G1 X-35.550 Y-42.276 E25.77861
G1 X-35.164 Y-42.827 E25.85852
G1 X-34.532 Y-43.602 E25.97728
G1 X-33.965 Y-44.194 E26.07463
G1 X-33.600 Y-44.534 E26.13384
G1 X-32.827 Y-45.164 E26.25225
G1 X-32.003 Y-45.724 E26.37065
G1 X-31.133 Y-46.210 E26.48904
G1 X-30.521 Y-46.495 E26.56915
G1 X-29.590 Y-46.849 E26.68746
G1 X-28.631 Y-47.121 E26.80585
G1 X-27.652 Y-47.308 E26.92419
G1 X-26.659 Y-47.409 E27.04279
G1 X-26.000 Y-47.428 E27.12105
G1 X26.162 Y-47.427 E33.31608
G1 X26.834 Y-47.397 E33.39601
G1 X27.331 Y-47.350 E33.45524
G1 X27.828 Y-47.281 E33.51489
G1 X28.631 Y-47.121 E33.61214
G1 X29.114 Y-46.995 E33.67136
G1 X29.753 Y-46.794 E33.75098
G1 X30.685 Y-46.423 E33.87000
G1 X31.420 Y-46.061 E33.96738
G1 X31.854 Y-45.815 E34.02659
G1 X32.276 Y-45.550 E34.08582
G1 X32.827 Y-45.164 E34.16575
G1 X33.600 Y-44.534 E34.28415
G1 X34.194 Y-43.965 E34.38183
G1 X34.534 Y-43.600 E34.44106
G1 X35.164 Y-42.827 E34.55948
G1 X35.724 Y-42.003 E34.67784
G1 X36.210 Y-41.132 E34.79628
G1 X36.619 Y-40.223 E34.91468
G1 X36.946 Y-39.281 E35.03306
G1 X37.191 Y-38.315 E35.15144
G1 X37.350 Y-37.331 E35.26989
G1 X37.423 Y-36.337 E35.38826
G1 X37.428 Y35.940 E43.97220
G1 X36.714 Y36.000 F9000.000
G1 F3000
G1 X36.696 Y36.614 E44.04510
G1 X36.659 Y37.079 E44.10060
G1 X36.524 Y38.005 E44.21165
G1 X36.310 Y38.914 E44.32264
G1 X36.016 Y39.801 E44.43362
G1 X35.647 Y40.660 E44.54460
G1 X35.204 Y41.483 E44.65565
G1 X34.956 Y41.879 E44.71115
G1 X34.588 Y42.405 E44.78738
G1 X33.997 Y43.129 E44.89839
G1 X33.345 Y43.799 E45.00939
G1 X32.638 Y44.410 E45.12039
G1 X31.880 Y44.956 E45.23138
G1 X31.483 Y45.204 E45.28694
G1 X30.817 Y45.570 E45.37717
G1 X29.964 Y45.953 E45.48819
G1 X29.526 Y46.117 E45.54375
G1 X28.915 Y46.310 E45.61990
G1 X28.005 Y46.524 E45.73095
G1 X27.080 Y46.659 E45.84195
G1 X26.614 Y46.696 E45.89746
G1 X26.000 Y46.714 E45.97038
G1 X-26.000 Y46.714 E52.14617
G1 X-26.614 Y46.696 E52.21908
G1 X-27.080 Y46.659 E52.27459
G1 X-27.716 Y46.575 E52.35080
G1 X-28.633 Y46.385 E52.46199
G1 X-29.361 Y46.173 E52.55208
G1 X-29.802 Y46.016 E52.60765
G1 X-30.660 Y45.647 E52.71865
G1 X-31.077 Y45.434 E52.77416
G1 X-31.632 Y45.114 E52.85035
G1 X-32.405 Y44.588 E52.96137
G1 X-32.774 Y44.300 E53.01692
G1 X-33.345 Y43.799 E53.10718
G1 X-33.679 Y43.471 E53.16272
G1 X-34.112 Y42.998 E53.23893
G1 X-34.691 Y42.264 E53.34994
G1 X-35.114 Y41.632 E53.44024
G1 X-35.570 Y40.816 E53.55126
G1 X-35.953 Y39.964 E53.66223
G1 X-36.261 Y39.082 E53.77323
G1 X-36.490 Y38.176 E53.88424
G1 X-36.640 Y37.253 E53.99525
G1 X-36.709 Y36.321 E54.10624
G1 X-36.713 Y-36.146 E62.71285
G1 X-36.685 Y-36.788 E62.78908
G1 X-36.640 Y-37.253 E62.84460
G1 X-36.575 Y-37.717 E62.90027
G1 X-36.427 Y-38.462 E62.99041
G1 X-36.310 Y-38.914 E63.04592
G1 X-36.117 Y-39.524 E63.12184
G1 X-35.770 Y-40.396 E63.23340
G1 X-35.435 Y-41.076 E63.32345
G1 X-35.204 Y-41.483 E63.37897
G1 X-34.956 Y-41.879 E63.43448
G1 X-34.588 Y-42.405 E63.51070
G1 X-34.300 Y-42.774 E63.56623
G1 X-33.799 Y-43.345 E63.65653
G1 X-33.345 Y-43.799 E63.73276
G1 X-32.997 Y-44.113 E63.78844
G1 X-32.264 Y-44.691 E63.89927
G1 X-31.485 Y-45.203 E64.00996
G1 X-30.817 Y-45.570 E64.10055
G1 X-29.964 Y-45.953 E64.21157
G1 X-29.082 Y-46.261 E64.32257
G1 X-28.176 Y-46.490 E64.43358
G1 X-27.253 Y-46.640 E64.54457
G1 X-26.612 Y-46.696 E64.62099
G1 X-26.000 Y-46.714 E64.69372
G1 X26.146 Y-46.713 E70.88690
G1 X26.788 Y-46.685 E70.96313
G1 X27.253 Y-46.640 E71.01866
G1 X27.719 Y-46.575 E71.07456
G1 X28.462 Y-46.427 E71.16446
G1 X28.914 Y-46.310 E71.21998
G1 X29.524 Y-46.117 E71.29589
G1 X30.397 Y-45.770 E71.40748
G1 X31.076 Y-45.435 E71.49750
G1 X31.483 Y-45.204 E71.55301
G1 X31.879 Y-44.956 E71.60854
G1 X32.405 Y-44.588 E71.68476
G1 X32.998 Y-44.112 E71.77506
G1 X33.345 Y-43.799 E71.83058
G1 X33.797 Y-43.347 E71.90648
G1 X34.112 Y-42.998 E71.96232
G1 X34.692 Y-42.264 E72.07343
G1 X35.203 Y-41.486 E72.18398
G1 X35.570 Y-40.816 E72.27464
G1 X35.953 Y-39.964 E72.38564
G1 X36.261 Y-39.082 E72.49662
G1 X36.490 Y-38.176 E72.60760
G1 X36.640 Y-37.253 E72.71864
G1 X36.709 Y-36.321 E72.82962
G1 X36.714 Y35.940 E81.41171
G1 E75.41171 F3000.00000
G92 E0
G1 X28.884 Y-4.001 F9000.000
G1 E6.00000 F3000.00000
G1 F3000
G1 X28.886 Y35.964 E10.74642
G1 X28.858 Y36.389 E10.79700
G1 X28.816 Y36.624 E10.82544
G1 X28.751 Y36.867 E10.85533
G1 X28.565 Y37.319 E10.91333
G1 X28.356 Y37.665 E10.96133
G1 X28.217 Y37.845 E10.98829
G1 X27.948 Y38.126 E11.03454
G1 X27.654 Y38.362 E11.07933
G1 X27.321 Y38.564 E11.12558
G1 X27.115 Y38.660 E11.15257
G1 X26.746 Y38.785 E11.19881
G1 X26.376 Y38.859 E11.24361
G1 X25.964 Y38.886 E11.29275
G1 X-25.976 Y38.886 E17.46131
G1 X-26.487 Y38.843 E17.52220
G1 X-26.867 Y38.750 E17.56875
G1 X-27.230 Y38.609 E17.61496
G1 X-27.644 Y38.370 E17.67180
G1 X-27.948 Y38.126 E17.71805
G1 X-28.216 Y37.846 E17.76401
G1 X-28.356 Y37.664 E17.79131
G1 X-28.558 Y37.331 E17.83754
G1 X-28.714 Y36.977 E17.88349
G1 X-28.783 Y36.758 E17.91079
G1 X-28.859 Y36.376 E17.95700
G1 X-28.886 Y35.964 E18.00614
G1 X-28.886 Y-35.964 E26.54857
G1 X-28.858 Y-36.389 E26.59915
G1 X-28.816 Y-36.624 E26.62759
G1 X-28.751 Y-36.867 E26.65748
G1 X-28.565 Y-37.319 E26.71548
G1 X-28.362 Y-37.654 E26.76203
G1 X-28.126 Y-37.948 E26.80681
G1 X-27.846 Y-38.216 E26.85277
G1 X-27.664 Y-38.356 E26.88007
G1 X-27.321 Y-38.564 E26.92773
G1 X-27.115 Y-38.660 E26.95472
G1 X-26.735 Y-38.789 E27.00242
G1 X-26.513 Y-38.838 E27.02941
G1 X-26.114 Y-38.882 E27.07710
G1 X26.123 Y-38.882 E33.28105
G1 X26.377 Y-38.860 E33.31126
G1 X26.867 Y-38.751 E33.37094
G1 X27.104 Y-38.665 E33.40083
G1 X27.540 Y-38.439 E33.45912
G1 X27.862 Y-38.203 E33.50653
G1 X28.040 Y-38.040 E33.53528
G1 X28.210 Y-37.854 E33.56513
G1 X28.492 Y-37.453 E33.62341
G1 X28.669 Y-37.093 E33.67110
G1 X28.751 Y-36.867 E33.69954
G1 X28.860 Y-36.377 E33.75926
G1 X28.882 Y-36.126 E33.78915
G1 X28.884 Y-4.061 E37.59732
G1 X29.598 Y-4.001 F9000.000
G1 F3000
G1 X29.600 Y35.987 E42.34651
G1 X29.568 Y36.474 E42.40450
G1 X29.514 Y36.779 E42.44128
G1 X29.433 Y37.082 E42.47858
G1 X29.326 Y37.378 E42.51587
G1 X29.196 Y37.656 E42.55234
G1 X28.946 Y38.068 E42.60961
G1 X28.760 Y38.310 E42.64586
G1 X28.432 Y38.654 E42.70229
G1 X28.064 Y38.948 E42.75820
G1 X27.658 Y39.195 E42.81464
G1 X27.381 Y39.324 E42.85089
G1 X26.932 Y39.477 E42.90733
G1 X26.470 Y39.568 E42.96324
G1 X25.987 Y39.600 E43.02071
G1 X-25.991 Y39.600 E49.19391
G1 X-26.314 Y39.586 E49.23225
G1 X-26.618 Y39.546 E49.26871
G1 X-27.082 Y39.433 E49.32546
G1 X-27.525 Y39.260 E49.38188
G1 X-27.800 Y39.117 E49.41866
G1 X-28.061 Y38.951 E49.45544
G1 X-28.432 Y38.654 E49.51187
G1 X-28.758 Y38.312 E49.56800
G1 X-28.946 Y38.068 E49.60457
G1 X-29.193 Y37.662 E49.66100
G1 X-29.383 Y37.229 E49.71712
G1 X-29.476 Y36.936 E49.75369
G1 X-29.568 Y36.470 E49.81012
G1 X-29.600 Y35.987 E49.86759
G1 X-29.600 Y-35.987 E58.41557
G1 X-29.568 Y-36.474 E58.47356
G1 X-29.514 Y-36.779 E58.51034
G1 X-29.433 Y-37.082 E58.54763
G1 X-29.326 Y-37.378 E58.58493
G1 X-29.196 Y-37.656 E58.62140
G1 X-28.948 Y-38.064 E58.67815
G1 X-28.654 Y-38.432 E58.73406
G1 X-28.312 Y-38.758 E58.79018
G1 X-28.068 Y-38.946 E58.82675
G1 X-27.658 Y-39.195 E58.88369
G1 X-27.381 Y-39.324 E58.91995
G1 X-26.927 Y-39.478 E58.97690
G1 X-26.629 Y-39.544 E59.01316
G1 X-26.153 Y-39.596 E59.07011
G1 X26.154 Y-39.596 E65.28237
G1 X26.470 Y-39.569 E65.31999
G1 X26.779 Y-39.514 E65.35727
G1 X27.082 Y-39.433 E65.39456
G1 X27.378 Y-39.326 E65.43186
G1 X27.662 Y-39.193 E65.46916
G1 X27.930 Y-39.038 E65.50594
G1 X28.315 Y-38.756 E65.56258
G1 X28.545 Y-38.545 E65.59967
G1 X28.757 Y-38.314 E65.63696
G1 X28.949 Y-38.065 E65.67425
G1 X29.115 Y-37.803 E65.71103
G1 X29.327 Y-37.373 E65.76798
G1 X29.433 Y-37.082 E65.80476
G1 X29.514 Y-36.779 E65.84205
G1 X29.569 Y-36.470 E65.87935
G1 X29.596 Y-36.157 E65.91664
G1 X29.598 Y-4.061 E69.72851
G1 X29.252 Y-3.801 F9000.000
G1 E63.72851 F3000.00000
G92 E0
G1 X27.186 Y37.877 F9000.000
G1 E6.00000 F3000.00000
G1 F3000
G1 X27.952 Y37.101 E6.13030
G1 X28.204 Y36.718 E6.18509
G1 X28.345 Y36.374 E6.22954
G1 X28.427 Y36.009 E6.27426
G1 X28.449 Y35.597 E6.32365
G1 X25.597 Y38.449 E6.80596
G1 X24.580 Y38.449 E6.92749
G1 X28.449 Y34.580 E7.58165
G1 X28.449 Y33.564 E7.70318
G1 X23.563 Y38.449 E8.52920
G1 X22.547 Y38.449 E8.65073
G1 X28.449 Y32.547 E9.64862
G1 X28.449 Y31.530 E9.77014
G1 X21.530 Y38.449 E10.93989
G1 X20.514 Y38.449 E11.06142
G1 X28.449 Y30.514 E12.40302
G1 X28.449 Y29.497 E12.52454
G1 X19.497 Y38.449 E14.03801
G1 X18.480 Y38.449 E14.15954
G1 X28.449 Y28.481 E15.84486
G1 X28.449 Y27.464 E15.96639
G1 X17.464 Y38.449 E17.82357
G1 X16.447 Y38.449 E17.94510
G1 X28.449 Y26.448 E19.97414
G1 X28.449 Y25.431 E20.09567
G1 X15.431 Y38.449 E22.29657
G1 X14.414 Y38.449 E22.41810
G1 X28.449 Y24.415 E24.79086
G1 X28.449 Y23.398 E24.91239
G1 X13.397 Y38.449 E27.45701
G1 X12.381 Y38.449 E27.57854
G1 X28.449 Y22.381 E30.29502
G1 X28.449 Y21.365 E30.41654
G1 X11.364 Y38.449 E33.30489
G1 X10.348 Y38.449 E33.42642
G1 X28.449 Y20.348 E36.48662
G1 X28.449 Y19.332 E36.60814
G1 X9.331 Y38.449 E39.84020
G1 X8.314 Y38.449 E39.96173
G1 X28.449 Y18.315 E43.36565
G1 X28.448 Y17.299 E43.48718
G1 X7.298 Y38.449 E47.06296
G1 X6.281 Y38.449 E47.18449
G1 X28.448 Y16.282 E50.93213
G1 X28.448 Y15.266 E51.05365
G1 X5.265 Y38.449 E54.97315
G1 X4.248 Y38.449 E55.09468
G1 X28.448 Y14.249 E59.18604
G1 X28.448 Y13.233 E59.30756
G1 X3.231 Y38.449 E63.57078
G1 X2.215 Y38.449 E63.69231
G1 X28.448 Y12.216 E68.12739
G1 X28.448 Y11.199 E68.24891
G1 X1.198 Y38.449 E72.85585
G1 X0.182 Y38.449 E72.97738
G1 X28.448 Y10.183 E77.75618
G1 X28.448 Y9.166 E77.87770
G1 X-0.835 Y38.449 E82.82836
G1 X-1.852 Y38.449 E82.94989
G1 X28.448 Y8.150 E88.07241
G1 X28.448 Y7.133 E88.19393
G1 X-2.868 Y38.449 E93.48831
G1 X-3.885 Y38.449 E93.60984
G1 X28.448 Y6.117 E99.07608
G1 X28.448 Y5.100 E99.19760
G1 X-4.902 Y38.449 E104.83570
G1 X-5.918 Y38.449 E104.95723
G1 X28.448 Y4.084 E110.76718
G1 X28.448 Y3.067 E110.88871
G1 X-6.935 Y38.449 E116.87052
G1 X-7.951 Y38.449 E116.99205
G1 X28.448 Y2.050 E123.14573
G1 X28.448 Y1.034 E123.26725
G1 X-8.968 Y38.449 E129.59279
G1 X-9.985 Y38.449 E129.71432
G1 X28.448 Y0.017 E136.21171
G1 X28.448 Y-0.999 E136.33323
G1 X-11.001 Y38.449 E143.00249
G1 X-12.018 Y38.449 E143.12402
G1 X28.447 Y-2.016 E149.96513
G1 X28.447 Y-3.032 E150.08666
G1 X-13.034 Y38.449 E157.09963
G1 X-14.051 Y38.449 E157.22116
G1 X28.447 Y-4.049 E164.40599
G1 X28.447 Y-5.065 E164.52752
G1 X-15.068 Y38.449 E171.88421
G1 X-16.084 Y38.449 E172.00574
G1 X28.447 Y-6.082 E179.53429
G1 X28.447 Y-7.098 E179.65582
G1 X-17.101 Y38.449 E187.35623
G1 X-18.117 Y38.449 E187.47776
G1 X28.447 Y-8.115 E195.35003
G1 X28.447 Y-9.132 E195.47156
G1 X-19.134 Y38.449 E203.51569
G1 X-20.151 Y38.449 E203.63722
G1 X28.447 Y-10.148 E211.85321
G1 X28.447 Y-11.165 E211.97473
G1 X-21.167 Y38.449 E220.36259
G1 X-22.184 Y38.449 E220.48411
G1 X28.447 Y-12.181 E229.04383
G1 X28.447 Y-13.198 E229.16535
G1 X-23.200 Y38.449 E237.89692
G1 X-24.217 Y38.449 E238.01845
G1 X28.447 Y-14.214 E246.92188
G1 X28.447 Y-15.231 E247.04340
G1 X-25.234 Y38.449 E256.11870
G1 X-26.248 Y38.447 E256.23998
G1 X28.447 Y-16.247 E265.48678
G1 X28.447 Y-17.264 E265.60830
G1 X-27.097 Y38.280 E274.99866
G1 X-27.198 Y38.241 E275.01157
G1 X-27.518 Y38.056 E275.05571
G1 X-27.724 Y37.890 E275.08738
G1 X28.447 Y-18.281 E284.58374
G1 X28.447 Y-19.297 E284.70526
G1 X-28.174 Y37.323 E294.27757
G1 X-28.322 Y37.003 E294.31978
G1 X-28.427 Y36.560 E294.37418
G1 X28.446 Y-20.314 E303.98932
G1 X28.446 Y-21.330 E304.11085
G1 X-28.449 Y35.566 E313.72976
G1 X-28.449 Y34.549 E313.85129
G1 X28.446 Y-22.347 E323.47020
G1 X28.446 Y-23.363 E323.59172
G1 X-28.449 Y33.532 E333.21062
G1 X-28.449 Y32.516 E333.33215
G1 X28.446 Y-24.380 E342.95104
G1 X28.446 Y-25.396 E343.07257
G1 X-28.449 Y31.499 E352.69145
G1 X-28.449 Y30.483 E352.81298
G1 X28.446 Y-26.413 E362.43185
G1 X28.446 Y-27.429 E362.55337
G1 X-28.449 Y29.466 E372.17224
G1 X-28.449 Y28.449 E372.29377
G1 X28.446 Y-28.446 E381.91262
G1 X28.446 Y-29.463 E382.03414
G1 X-28.449 Y27.433 E391.65299
G1 X-28.449 Y26.416 E391.77452
G1 X28.446 Y-30.479 E401.39335
G1 X28.446 Y-31.496 E401.51488
G1 X-28.449 Y25.400 E411.13370
G1 X-28.449 Y24.383 E411.25523
G1 X28.446 Y-32.512 E420.87405
G1 X28.446 Y-33.529 E420.99557
G1 X-28.449 Y23.366 E430.61438
G1 X-28.449 Y22.350 E430.73591
G1 X28.446 Y-34.545 E440.35471
G1 X28.446 Y-35.562 E440.47623
G1 X-28.449 Y21.333 E450.09502
G1 X-28.449 Y20.317 E450.21655
G1 X28.420 Y-36.553 E459.83098
G1 X28.394 Y-36.747 E459.85446
G1 X28.282 Y-37.104 E459.89912
G1 X28.174 Y-37.323 E459.92839
G1 X-28.449 Y19.300 E469.50124
G1 X-28.449 Y18.283 E469.62277
G1 X27.722 Y-37.888 E479.11922
G1 X27.427 Y-38.118 E479.16396
G1 X27.094 Y-38.277 E479.20799
G1 X-28.449 Y17.267 E488.59834
G1 X-28.449 Y16.250 E488.71987
G1 X26.247 Y-38.446 E497.96687
G1 X25.230 Y-38.446 E498.08840
G1 X-28.449 Y15.234 E507.16352
G1 X-28.449 Y14.217 E507.28505
G1 X24.213 Y-38.446 E516.18831
G1 X23.197 Y-38.446 E516.30984
G1 X-28.449 Y13.200 E525.04123
G1 X-28.449 Y12.184 E525.16276
G1 X22.180 Y-38.446 E533.72228
G1 X21.163 Y-38.446 E533.84381
G1 X-28.449 Y11.167 E542.23146
G1 X-28.449 Y10.151 E542.35299
G1 X20.147 Y-38.446 E550.56877
G1 X19.130 Y-38.446 E550.69030
G1 X-28.449 Y9.134 E558.73421
G1 X-28.449 Y8.117 E558.85574
G1 X18.114 Y-38.446 E566.72778
G1 X17.097 Y-38.446 E566.84931
G1 X-28.449 Y7.101 E574.54949
G1 X-28.449 Y6.084 E574.67102
G1 X16.080 Y-38.446 E582.19932
G1 X15.064 Y-38.446 E582.32085
G1 X-28.449 Y5.068 E589.67729
G1 X-28.449 Y4.051 E589.79882
G1 X14.047 Y-38.446 E596.98339
G1 X13.031 Y-38.446 E597.10492
G1 X-28.449 Y3.034 E604.11762
G1 X-28.449 Y2.018 E604.23915
G1 X12.014 Y-38.446 E611.07998
G1 X10.997 Y-38.446 E611.20151
G1 X-28.449 Y1.001 E617.87047
